X:1
T: Adieu to the Auld Year
T: Hogmanay
R:Strathspey
Q:128
K:A
M:4/4
L:1/16
|:C3E A3E CCC2 C4|C3E Ac3 B3B, B,E3|C3E A3E CCC2 C4|edcB A3E EC3 C2E2|
C3E A3E CCC2 C4|C3E Ac3 B3B, B,E3|C3E A3E CCC2 C4|edcB A3E EC3 C2e2|
fedc ac3 ec3 e3a|e3c a2ga b3B Ba3|fedc a3c e3c fa3|gb3 a3c ec3 c3a|
fedc ac3 ec3 e3a|e3c a2ga b3B Ba3|fedc a3c e3c fa3|ec3 A3F E3C C2:|
